flaticon/office/stapler-2.svg

<svg xmlns="http://www.w3.org/2000/svg" width="32" height="32" viewBox="0 0 24 24">
    <path d="M 22.800781 17.601562 L 22 17.601562 L 22 16.800781 L 22.800781 16.800781 C 23.238281 16.800781 23.601562 16.441406 23.601562 16 L 23.601562 4 C 23.601562 3.121094 22.878906 2.398438 22 2.398438 L 2 2.398438 C 1.121094 2.398438 0.398438 3.121094 0.398438 4 L 0.398438 16 C 0.398438 16.441406 0.761719 16.800781 1.199219 16.800781 L 2 16.800781 L 2 17.601562 L 1.199219 17.601562 C 0.519531 17.601562 0 18.121094 0 18.800781 L 0 20.398438 C 0 21.078125 0.519531 21.601562 1.199219 21.601562 L 22.800781 21.601562 C 23.480469 21.601562 24 21.078125 24 20.398438 L 24 18.800781 C 24 18.121094 23.480469 17.601562 22.800781 17.601562 Z M 21.199219 17.601562 L 20.398438 17.601562 L 20.398438 16.800781 L 21.199219 16.800781 Z M 4.398438 17.601562 L 4.398438 16.800781 L 5.199219 16.800781 C 5.640625 16.800781 6 16.441406 6 16 L 6 15.199219 L 18 15.199219 L 18 16 C 18 16.441406 18.359375 16.800781 18.800781 16.800781 L 19.601562 16.800781 L 19.601562 17.601562 Z M 18 14.398438 L 6 14.398438 L 6 10.398438 L 18 10.398438 Z M 1.199219 4 C 1.199219 3.558594 1.558594 3.199219 2 3.199219 L 22 3.199219 C 22.441406 3.199219 22.800781 3.558594 22.800781 4 L 22.800781 16 L 18.800781 16 L 18.800781 10 C 18.800781 9.761719 18.640625 9.601562 18.398438 9.601562 L 5.601562 9.601562 C 5.359375 9.601562 5.199219 9.761719 5.199219 10 L 5.199219 16 L 1.199219 16 Z M 2.800781 16.800781 L 3.601562 16.800781 L 3.601562 17.601562 L 2.800781 17.601562 Z M 23.199219 20.398438 C 23.199219 20.640625 23.039062 20.800781 22.800781 20.800781 L 1.199219 20.800781 C 0.960938 20.800781 0.800781 20.640625 0.800781 20.398438 L 0.800781 18.800781 C 0.800781 18.558594 0.960938 18.398438 1.199219 18.398438 L 22.800781 18.398438 C 23.039062 18.398438 23.199219 18.558594 23.199219 18.800781 Z M 23.199219 20.398438"/>
</svg>

<svg xmlns="http://www.w3.org/2000/svg" width="32" height="32" viewBox="0 0 24 24">
    <path d="M22.8 17.602H22V16.8h.8c.438 0 .802-.36.802-.801V4c0-.879-.723-1.602-1.602-1.602H2C1.121 2.398.398 3.121.398 4v12c0 .441.364.8.801.8H2v.802h-.8c-.68 0-1.2.52-1.2 1.199v1.597c0 .68.52 1.204 1.2 1.204h21.6c.68 0 1.2-.524 1.2-1.204v-1.597c0-.68-.52-1.2-1.2-1.2zm-1.6 0h-.802V16.8h.801zm-16.802 0V16.8H5.2C5.641 16.8 6 16.44 6 16v-.8h12v.8c0 .441.36.8.8.8h.802v.802zM18 14.398H6v-4h12zM1.2 4c0-.441.359-.8.8-.8h20c.441 0 .8.359.8.8v12h-4v-6c0-.238-.16-.398-.402-.398H5.602c-.243 0-.403.16-.403.398v6h-4zm1.6 12.8h.802v.802H2.8zm20.4 3.598c0 .243-.16.403-.4.403H1.2c-.24 0-.4-.16-.4-.403v-1.597c0-.242.16-.403.4-.403h21.6c.24 0 .4.16.4.403zm0 0"/>
</svg>
